X:1
T:Title
%%score { ( 1 3 ) | 2 }
L:1/8
M:4/4
K:Eb
V:1 treble nm="Grand Piano"
V:3 treble 
V:2 bass 
V:1
 z4 z2[Q:1/4=100] EF | GGGG G2 FE | B6 z2 | G6 z2 | F6 z2 | GGGG G2 FE | B6 z2 | G6 z2 | %8
[M:3/4] [B,E]6 |[M:1/4] [GB][GB] |[M:4/4] c2 c2 c[ce][Bd][Ac] | B2- [GB-][GB-] [GB]2 [Ac][GB] | %12
 G2 G2 GFEG | F6 z2 | GGGG G2 FE | G[GB][GB][GB] [GB]2 cB | G6 z2 |[M:3/4] [B,E]6 |] %18
V:2
 z4 z2 [E,G,B,][E,A,B,] | [E,B,E][E,B,E][E,B,E][E,B,E] [E,B,E]2 z2 | z2 [E,E][E,E] [E,E]2 z2 | %3
 z2 [E,B,][E,B,] [E,B,]2 z2 | z2 [B,,B,][B,,B,] [B,,B,]2 [E,G,B,][E,A,B,] | %5
 [E,B,E][E,B,E][E,B,E][E,B,E] [E,B,E]2 z2 | z2 [E,E][E,E] [E,E]2 z2 | %7
 z2 [E,B,][E,B,] [E,B,]2 [B,,B,][B,,A,] |[M:3/4] [E,G,]6 |[M:1/4] [E,E][E,E] | %10
[M:4/4][K:treble] [A,EA]2 [A,EA]2 [A,EA][A,E][A,E][K:bass][A,E] | %11
 [E,E]2 [E,E][E,E] [E,E]2 [E,E][E,E] | [E,B,E]2 [E,B,E]2 [E,B,E][E,A,E][E,G,][E,B,E] | %13
 [B,,B,]2 [B,,B,][B,,B,] [B,,B,]2 [E,G,B,][E,A,B,] | %14
 [E,B,E][E,B,E][E,B,E][E,B,E] [E,B,E]2 [E,A,B,][E,G,B,] | [E,B,E][E,E][E,E][E,E] [E,E]2 z2 | %16
 z2 [B,,B,][B,,B,] [B,,B,]2 [B,,B,][B,,A,] |[M:3/4] [E,G,]6 |] %18
V:3
 x8 | x8 | z2 GG G2 cB | z2 EE E2 EG | z2 DD D2 EF | x8 | z2 GG G2 cB | z2 EE E2 [EG][B,F] | %8
[M:3/4] x6 |[M:1/4] x2 |[M:4/4] x8 | G2 z2 z4 | x8 | D2 DD D2 EF | x8 | x8 | z2 EE E2 [DG][DF] | %17
[M:3/4] x6 |] %18

